components/2.0/icon/icons/icon-table-grid-column-22px.svg

<svg width="22" height="22" xmlns="http://www.w3.org/2000/svg"><path d="M13 18H9V4h4v14zm1 0h4v-4h-4v-1h4V9h-4V8h4V4h-4v14zm-6 0H4v-4h4v-1H4V9h4V8H4V4h4v14zM2 2h18v18H2V2z" fill="#3C4751" fill-rule="evenodd"/></svg>

<?xml version="1.0" encoding="UTF-8" standalone="no"?>
<svg width="22px" height="22px" viewBox="0 0 22 22" version="1.1" xmlns="http://www.w3.org/2000/svg" xmlns:xlink="http://www.w3.org/1999/xlink" xmlns:sketch="http://www.bohemiancoding.com/sketch/ns">
    <!-- Generator: Sketch 3.4.4 (17249) - http://www.bohemiancoding.com/sketch -->
    <title>icon-table-grid-column-22px</title>
    <desc>Created with Sketch.</desc>
    <defs></defs>
    <g id="22px" stroke="none" stroke-width="1" fill="none" fill-rule="evenodd" sketch:type="MSPage">
        <g id="icon-table-grid-column-22px" sketch:type="MSArtboardGroup" fill="#3C4751">
            <path d="M13,18 L9,18 L9,4 L13,4 L13,18 Z M14,18 L18,18 L18,14 L14,14 L14,13 L18,13 L18,9 L14,9 L14,8 L18,8 L18,4 L14,4 L14,18 Z M8,18 L4,18 L4,14 L8,14 L8,13 L4,13 L4,9 L8,9 L8,8 L4,8 L4,4 L8,4 L8,18 Z M2,2 L20,2 L20,20 L2,20 L2,2 Z" id="grid-column" sketch:type="MSShapeGroup"></path>
        </g>
    </g>
</svg>
